packages/assets/static/images/icons/pencil-ruler.svg

<svg width="24" height="24" viewBox="0 0 24 24" xmlns="http://www.w3.org/2000/svg" fill="currentColor" aria-hidden="true"> <path d="M19.4999 3.00134H14.9999C14.5027 3.00134 14.0257 3.19888 13.6741 3.55051C13.3225 3.90214 13.1249 4.37906 13.1249 4.87634V19.8763C13.1249 20.3736 13.3225 20.8505 13.6741 21.2022C14.0257 21.5538 14.5027 21.7513 14.9999 21.7513H19.4999C19.9972 21.7513 20.4741 21.5538 20.8258 21.2022C21.1774 20.8505 21.3749 20.3736 21.3749 19.8763V4.87634C21.3749 4.37906 21.1774 3.90214 20.8258 3.55051C20.4741 3.19888 19.9972 3.00134 19.4999 3.00134ZM19.1249 19.5013H15.3749V17.2513H16.8749C17.1733 17.2513 17.4595 17.1328 17.6704 16.9218C17.8814 16.7109 17.9999 16.4247 17.9999 16.1263C17.9999 15.828 17.8814 15.5418 17.6704 15.3308C17.4595 15.1199 17.1733 15.0013 16.8749 15.0013H15.3749V13.5013H16.8749C17.1733 13.5013 17.4595 13.3828 17.6704 13.1718C17.8814 12.9609 17.9999 12.6747 17.9999 12.3763C17.9999 12.078 17.8814 11.7918 17.6704 11.5808C17.4595 11.3699 17.1733 11.2513 16.8749 11.2513H15.3749V9.75134H16.8749C17.1733 9.75134 17.4595 9.63281 17.6704 9.42183C17.8814 9.21085 17.9999 8.92471 17.9999 8.62634C17.9999 8.32797 17.8814 8.04182 17.6704 7.83084C17.4595 7.61986 17.1733 7.50134 16.8749 7.50134H15.3749V5.25134H19.1249V19.5013ZM7.54588 2.5804C7.44136 2.47552 7.31717 2.3923 7.18043 2.33552C7.04368 2.27874 6.89707 2.24951 6.74901 2.24951C6.60094 2.24951 6.45433 2.27874 6.31758 2.33552C6.18084 2.3923 6.05665 2.47552 5.95213 2.5804L2.95213 5.5804C2.74189 5.79186 2.62421 6.07815 2.62494 6.37634V19.8763C2.62494 20.3736 2.82249 20.8505 3.17412 21.2022C3.52575 21.5538 4.00266 21.7513 4.49994 21.7513H8.99994C9.49722 21.7513 9.97414 21.5538 10.3258 21.2022C10.6774 20.8505 10.8749 20.3736 10.8749 19.8763V6.37634C10.8751 6.22856 10.8461 6.0822 10.7896 5.94563C10.7331 5.80906 10.6503 5.68495 10.5459 5.5804L7.54588 2.5804ZM4.87494 9.00134H8.62494V15.7513H4.87494V9.00134ZM6.74994 4.97009L8.53119 6.75134H4.96869L6.74994 4.97009ZM4.87494 19.5013V18.0013H8.62494V19.5013H4.87494Z"/> </svg>

<svg viewBox="0 0 24 24" xmlns="http://www.w3.org/2000/svg" aria-hidden="true" fill="currentColor"><path d="M19.5 3.001H15a1.875 1.875 0 0 0-1.875 1.875v15A1.875 1.875 0 0 0 15 21.751h4.5a1.875 1.875 0 0 0 1.875-1.875v-15A1.875 1.875 0 0 0 19.5 3.001m-.375 16.5h-3.75v-2.25h1.5a1.125 1.125 0 1 0 0-2.25h-1.5v-1.5h1.5a1.125 1.125 0 1 0 0-2.25h-1.5v-1.5h1.5a1.125 1.125 0 1 0 0-2.25h-1.5v-2.25h3.75zM7.545 2.581a1.125 1.125 0 0 0-1.593 0l-3 3c-.21.21-.328.497-.327.795v13.5A1.875 1.875 0 0 0 4.5 21.751H9a1.875 1.875 0 0 0 1.875-1.875v-13.5a1.12 1.12 0 0 0-.33-.796zM4.876 9h3.75v6.75h-3.75zm1.875-4.03L8.53 6.75H4.97zM4.875 19.5v-1.5h3.75v1.5z"/></svg>
